X: 3257
T: STAR IRISH JIG
R: Jig.
%R: jig
B: James Kerr "Merry Melodies" v.3 p.28 #257
Z: 2016 John Chambers <jc:trillian.mit.edu>
M: 6/8
L: 1/8
K: G
ue |\
dBB GBB | GBB d2e | dBB GBB | cAB (c2e) |\
dBc def | gfe dcB | gfe dcB | cAB c2 :|
|: e |\
dBB gBB | dBB (d2e) | dBB gBB | cAB (c2e) |\
dBB gBB | dBB def | gfe dcB | cAB c2 :|

%%sep 1 1 500
%%sep 1 1 500

